packages/calcite-ui-icons/icons/government-building-24.svg

<?xml version="1.0" encoding="UTF-8"?><svg id="icons" xmlns="http://www.w3.org/2000/svg" viewBox="0 0 24 24"><defs><style>.cls-1{fill:none;}.cls-2{fill-rule:evenodd;}</style></defs><path class="cls-2" d="M12,1L0,8h24L12,1ZM12,2.15723l8.30078,4.84277H3.69922L12,2.15723ZM1,10h1v10l-1,1v2h22v-2l-1-1v-10h1v-1H1v1ZM19,10h2v10h-2v-10ZM16,10h2v10h-2v-10ZM9,10h6v10h-1v-3h-4v3h-1v-10ZM13,18v2h-2v-2h2ZM6,10h2v10h-2v-10ZM3,10h2v10h-2v-10ZM21.58594,21l.41406.41406v.58594H2v-.58594l.41406-.41406h19.17188Z"/><rect class="cls-1" width="24" height="24"/></svg>

<svg xmlns="http://www.w3.org/2000/svg" viewBox="0 0 24 24"><path d="M12 1L0 8h24L12 1zm0 1.157L20.3 7H3.7L12 2.157zM1 10h1v10l-1 1v2h22v-2l-1-1V10h1V9H1v1zm18 0h2v10h-2V10zm-3 0h2v10h-2V10zm-7 0h6v10h-1v-3h-4v3H9V10zm4 8v2h-2v-2h2zm-7-8h2v10H6V10zm-3 0h2v10H3V10zm18.586 11l.414.414V22H2v-.586L2.414 21h19.172z" fill-rule="evenodd"/><path fill="none" d="M0 0h24v24H0z"/></svg>
